Suru++-Ubuntu/apps/symbolic/media-player-banshee-symbolic.svg

<svg width="16" height="16" version="1.0" xmlns="http://www.w3.org/2000/svg">
 <path d="m5.4375 0.25a0.73822721 0.73822721 0 0 0-0.5 0.21679688l-2.2128906 2.2128906a0.73822721 0.73822721 0 1 0 1.0429687 1.0449219l0.9550781-0.9550782v7.4257808a0.73822721 0.73822721 0 0 0 0 0.050782 0.73822721 0.73822721 0 0 0 0.0585938 0.277344c0.1557292 1.658642 1.5805261 3.013671 3.2617188 3.013671 1.7780246 0 3.3222652-1.501119 3.3222652-3.291015 0-0.8949484-0.411418-1.71015-1.009765-2.3183596-0.5983479-0.6082076-1.4116162-1.0351563-2.3125002-1.0351563-0.7002349 0-1.3113593 0.3027956-1.8457032 0.703125v-6.6074218a0.73822721 0.73822721 0 0 0-0.7597656-0.73828125zm2.1660156 4.4453125a0.73865579 0.73865579 0 1 0 0.1171875 1.4726563c1.7502942-0.1394694 3.3865609 0.8557939 4.0664059 2.4746093 0.67992 1.6188439 0.244901 3.4845789-1.080078 4.6367189-1.3249755 1.152136-3.2314042 1.321962-4.7402341 0.423828-1.5087386-0.898136-2.2679095-2.655127-1.8867188-4.3691406a0.73828381 0.73828381 0 1 0-1.4414062-0.3203125c-0.5183231 2.3306251 0.5207426 4.7377341 2.5722656 5.9589841 2.0515792 1.221206 4.6631944 0.986552 6.4648435-0.580078 1.801647-1.566628 2.397186-4.121017 1.472657-6.3222655-0.92446-2.2012764-3.1649526-3.5646439-5.5449224-3.375zm0.4394532 3.6738281c0.4148005 0 0.8952657 0.2232421 1.2597656 0.59375s0.5859375 0.8624664 0.5859375 1.2832034c0 0.841473-0.9923582 1.814453-1.8457031 1.814453-0.8536334 0-1.8457032-0.973381-1.8457032-1.814453 0-0.4210379 0.2234002-0.9127754 0.5878906-1.2832034 0.3644906-0.3704279 0.8427271-0.59375 1.2578126-0.59375z" style="fill:#808080"/>
</svg>

<svg xmlns="http://www.w3.org/2000/svg" width="16" height="16" version="1.0">
 <path style="fill:#808080" d="M 5.4375 0.25 A 0.73822721 0.73822721 0 0 0 4.9375 0.46679688 L 2.7246094 2.6796875 A 0.73822721 0.73822721 0 1 0 3.7675781 3.7246094 L 4.7226562 2.7695312 L 4.7226562 10.195312 A 0.73822721 0.73822721 0 0 0 4.7226562 10.246094 A 0.73822721 0.73822721 0 0 0 4.78125 10.523438 C 4.9369792 12.18208 6.3617761 13.537109 8.0429688 13.537109 C 9.8209934 13.537109 11.365234 12.03599 11.365234 10.246094 C 11.365234 9.3511456 10.953816 8.535944 10.355469 7.9277344 C 9.7571211 7.3195268 8.9438528 6.8925781 8.0429688 6.8925781 C 7.3427339 6.8925781 6.7316095 7.1953737 6.1972656 7.5957031 L 6.1972656 0.98828125 A 0.73822721 0.73822721 0 0 0 5.4375 0.25 z M 7.6035156 4.6953125 A 0.73865579 0.73865579 0 1 0 7.7207031 6.1679688 C 9.4709973 6.0284994 11.107264 7.0237627 11.787109 8.6425781 C 12.467029 10.261422 12.03201 12.127157 10.707031 13.279297 C 9.3820555 14.431433 7.4756268 14.601259 5.9667969 13.703125 C 4.4580583 12.804989 3.6988874 11.047998 4.0800781 9.3339844 A 0.73828381 0.73828381 0 1 0 2.6386719 9.0136719 C 2.1203488 11.344297 3.1594145 13.751406 5.2109375 14.972656 C 7.2625167 16.193862 9.8741319 15.959208 11.675781 14.392578 C 13.477428 12.82595 14.072967 10.271561 13.148438 8.0703125 C 12.223978 5.8690361 9.9834854 4.5056686 7.6035156 4.6953125 z M 8.0429688 8.3691406 C 8.4577693 8.3691406 8.9382345 8.5923827 9.3027344 8.9628906 C 9.6672343 9.3333985 9.8886719 9.825357 9.8886719 10.246094 C 9.8886719 11.087567 8.8963137 12.060547 8.0429688 12.060547 C 7.1893354 12.060547 6.1972656 11.087166 6.1972656 10.246094 C 6.1972656 9.8250561 6.4206658 9.3333186 6.7851562 8.9628906 C 7.1496468 8.5924627 7.6278833 8.3691406 8.0429688 8.3691406 z"/>
</svg>
